**kern	**kern	**dynam
*part1	*part1	*part1
*staff2	*staff1	*
*I"Piano	*	*
*clefF4	*clefG2	*
*k[]	*k[]	*
=1	=1	=1
8r	[2fn 2ccn [2ffn	.
8GGGL	.	.
8DD	.	.
8GGJ	.	.
=	=	=
*	*^	*
8DL	2f;] 2ff]	4b	.
8G	.	.	.
8d	.	4g	.
8fJ	.	.	.
=	=	=	=
!	!	!	!LO:DY:a
4CC 4C	2e 2ee	8rff	ff
.	.	4g 4cc	.
4G 4c	.	.	.
.	.	8g 8cc	.
=	=	=	=
4DD 4D	4B 4b	8r	.
.	.	4f 4g	.
4EE 4E	4c 4cc	.	.
.	.	8e 8g	.
=	=	=	=
4FF 4F	2A 2a	8r	.
.	.	4c 4f	.
4DD 4D	.	.	.
.	.	8c 8f	.
=	=	=	=
4BBB 4BB	2G 2g	8r	.
.	.	4d 4f	.
4GGG 4GG	.	.	.
.	.	8d 8f	.
=	=	=	=
4CC 4C	2e 2ee	8rff	.
.	.	4g 4cc	.
4G 4c	.	.	.
.	.	8g 8cc	.
=	=	=	=
4DD 4D	4B 4b	8r	.
.	.	4f 4g	.
4EE 4E	4c 4cc	.	.
.	.	8e 8g	.
*	*v	*v	*
=	=	=
*-	*-	*-
!!!system-decoration: {(s1,s2)}
